!!!SOCIAL_FUNCTION:	miscellaneous songs
!!!PDT:	1957
!!!OTL: No_9_Song_of_Brave_Man's_Dance.krn
!!!LING_GROUP: Keresan
!!!LANG: Tone
!!!REG: Southwest
**kern
*staff1
=1-
*clefF4
*k[b-e-]
*M2/4
4d\
8d\L
8e-\J
=2
8d\L
8A\J
4A\
=3
8c\L
8B-\J
8A\L
8G\J
=4
4A\
4A\
=5
8A\L
8B-\J
4G\
=6
8G\L
8A\J
8G\
8r
=7
4G\
8G\L
8A\J
=8
4G\
4G\
=9
4d\
8d\L
8e-\J
=10
8d\L
8A\J
4A\
=11
8A\L
8B-\J
8A\L
8G\J
=12
*M3/4
4A\
8A\L
8B-\J
8A\L
8B-\J
=13
*M2/4
8G\
8r
8G\L
8A\J
=14
4G\
4r
=15
4G\
8G\L
8A\J
=16
4G\
4B-\
=17
*M3/4
4B-\
8B-\L
8G\J
4A\
=18
*M2/4
4B-\
8B-\L
8G\J
=19
*M3/4
4A\
8A\L
8B-\J
8A\L
8B-\J
=20
*M2/4
4G\
8G\L
8A\J
=21
4G\
4r
=22
4G\
8G\L
8A\J
=23
4G\
4B-\
=24
*M3/4
4B-\
8A\L
8G\J
4A\
=25
4B-\
8A\L
8G\J
4A\
=26
*M2/4
4B-\
8A\L
8G\J
=27
*M3/4
4A\
8A\L
8B-\J
8A\L
8B-\J
=28
*M2/4
4G\
8G\L
8A\J
=29
4G\
4r
==
*-
